X: 1
T:The Road to the Isles
M:C|
L:1/8
Q:80
C:John MacLellan
S:March
K:HP
|: A/2d/2|
{gfg}f2a3/4f/4{g}e3/4f/4|
{Gdc}d3/4e/4{g}d3/4c/4{gBd}B{g}d/2c/2|  !
{g}B/4{d}G3/4{g}B3/4c/4{Gdc}d3/4e/4{g}f/4a3/4|
{ef}e2{A}e{g}A/2d/2{gfg}f2a3/4f/4{g}e3/4f/4|
{Gdc}d3/4e/4{g}d3/4c/4{gBd}B{gf}g|  !
{a}f/4a3/4{fg}f3/4d/4{g}A3/4{d}c/4{gef}e3/4c/4|
{Gdc}d2{gdc}d:| |:
{g}f/2g/2|  !
{ag}a3/4A/4{GAG}A{gfg}f3/4A/4{GAG}A|
{Gdc}d3/4e/4{g}d3/4c/4{gBd}B{g}d/2c/2|
{g}B/4{d}G3/4{g}B3/4c/4{Gdc}d3/4e/4{g}f/4a3/4|  !
{ef}e2{A}e|1 {g}f/2g/2{ag}a3/4A/4{GAG}A{gfg}f3/4A/4{GAG}A|
{Gdc}d3/4e/4{g}d3/4c/4{gBd}B{gf}g|
{a}f/4a3/4{fg}f3/4d/4{g}A3/4{d}c/4{gef}e3/4c/4|  !
{Gdc}d2{gdc}d:|
